app/dist/common/images/china-energy-engineering-ltd.svg

<svg height="18" viewBox="0 0 18 18" width="18" xmlns="http://www.w3.org/2000/svg"><path d="m0 0h18v18h-18z" fill="#f0f3fa"/><path d="m5.15 8h-3.15l1.05-1h2.1zm10.85 0h-3.15l1.05-1h2.1z" fill="#0268b7"/><path d="m3 8.23h-1v2.77l1-.92zm11 0h-1v2.77l1-.92z" fill="#0267b8"/><path d="m5.15 10h-1.75l-1.05 1h2.8zm10.85 0h-1.75l-1.05 1h2.8z" fill="#006bbe"/><path d="m8.65 8h-3.15l1.05-1h2.1z" fill="#0268b7"/><path d="m6.55 8.23h-1.05v2.77l1.05-.92z" fill="#0267b8"/><path d="m8.65 10h-1.75l-1.05 1h2.8z" fill="#006bbe"/><path d="m7.25 8.54h1.4v.92h-1.4z" fill="#0268b7"/><path d="m9.35 10h3.15l-1.05 1h-2.1zm2.1-.23h1.05v-2.77l-1.05.92zm-2.1-1.77h1.75l1.05-1h-2.8zm1.4 1.46h-1.4v-.92h1.4z" fill="#e40112"/></svg>

<!-- by TradingView --><svg width="18" height="18" viewBox="0 0 18 18" xmlns="http://www.w3.org/2000/svg"><path fill="#F0F3FA" d="M0 0h18v18H0z"/><path d="M5.15 8H2l1.05-1h2.1v1ZM16 8h-3.15l1.05-1H16v1Z" fill="#0268B7"/><path d="M3 8.23H2V11l1-.92V8.23ZM14 8.23h-1V11l1-.92V8.23Z" fill="#0267B8"/><path d="M5.15 10H3.4l-1.05 1h2.8v-1ZM16 10h-1.75l-1.05 1H16v-1Z" fill="#006BBE"/><path d="M8.65 8H5.5l1.05-1h2.1v1Z" fill="#0268B7"/><path d="M6.55 8.23H5.5V11l1.05-.92V8.23Z" fill="#0267B8"/><path d="M8.65 10H6.9l-1.05 1h2.8v-1Z" fill="#006BBE"/><path fill="#0268B7" d="M7.25 8.54h1.4v.92h-1.4z"/><path d="M9.35 10h3.15l-1.05 1h-2.1v-1ZM11.45 9.77h1.05V7l-1.05.92v1.85ZM9.35 8h1.75l1.05-1h-2.8v1ZM10.75 9.46h-1.4v-.92h1.4z" fill="#E40112"/></svg>
